X:126
T: ES WARN EINMAL ZWEI JUNGE KNABN
N: E0065
O: Europa, Mitteleuropa, Deutschland, Frankfurt a.M.
R: erzaehlendes Volks - Lied, Sage, Mord, Hinrichtung
M: 4/4
L: 1/8
K: G
D2 | D2G2G2A2 | F2E2D2z
D | G2B2A2d2 | B4z2
D2 | D2G2G2A2 | F2E2D2z
D | G2B2A2d2 | B4z2
GB | d2ddedcB | c2A2z2
AB | c2ccdcBA | B2G2z2
G2 | A2A2D2EF | G4z2

@@@ Tune index: 3776
